packages/core/src/svgs/sdex.svg

<svg width="24" height="24" viewBox="0 0 24 24" fill="none" xmlns="http://www.w3.org/2000/svg">
<g clip-path="url(#clip0_31_18451)">
<path d="M0 0H24V24H0V0Z" fill="#343E47"/>
<path fill-rule="evenodd" clip-rule="evenodd" d="M18.4284 8.99143C18.4183 8.65863 18.3222 8.33412 18.1495 8.04948C17.9767 7.76484 17.7333 7.52977 17.4427 7.36715L15.9684 6.44572L13.0327 4.60286C12.7274 4.39297 12.3648 4.28239 11.9943 4.28623C11.6239 4.29006 11.2636 4.40812 10.9627 4.62429C10.1684 5.12589 9.37121 5.62304 8.57129 6.11572L8.10843 6.40286C7.58986 6.72857 7.067 7.05 6.55272 7.38C6.04272 7.70572 5.57557 8.34429 5.57129 8.96572V14.9143C5.57807 15.2609 5.67288 15.6001 5.84681 15.9C6.02075 16.1999 6.26808 16.4506 6.56557 16.6286L8.84557 18.06L10.9584 19.38C11.2745 19.6016 11.6523 19.7183 12.0383 19.7137C12.4243 19.7091 12.7991 19.5834 13.1099 19.3543C13.8684 18.8614 14.6356 18.3857 15.4027 17.9143C16.1013 17.4771 16.8041 17.0443 17.4984 16.5986C17.776 16.421 18.0059 16.1782 18.168 15.8913C18.3301 15.6044 18.4195 15.2822 18.4284 14.9529V8.99143ZM14.5627 14.5714C13.8636 15.0532 13.149 15.5121 12.4199 15.9471C12.2827 16.0329 12.1413 16.0714 11.9999 16.0714C11.8499 16.0714 11.6999 16.0243 11.5499 15.9343C11.087 15.6514 10.7441 15.4457 10.3927 15.24L9.04272 14.4257C8.55415 14.1257 8.56272 13.62 8.57129 13.1229V12.9771C8.57129 12.87 8.53272 12.78 8.43415 12.72C8.22843 12.5957 8.02272 12.45 7.81272 12.3043C7.58986 12.15 7.367 11.9914 7.14415 11.8586C6.96843 11.7514 6.86129 11.8071 6.86129 12.0171V12.4629C6.857 13.0714 6.85272 13.68 6.87415 14.2886C6.89129 14.8371 7.16129 15.2743 7.64557 15.5743L8.84557 16.3114L11.1813 17.7471C11.7384 18.09 12.287 18.0771 12.8399 17.7343L14.4513 16.7486C15.0941 16.3543 15.737 15.9643 16.3713 15.5657C16.5929 15.4293 16.7786 15.2418 16.9128 15.0188C17.047 14.7958 17.1259 14.544 17.1427 14.2843C17.1684 14.0143 16.9241 13.8814 16.7013 13.7571L16.5599 13.68C16.2384 13.4871 15.7541 13.1829 15.1799 12.8229C14.3784 12.3214 13.4013 11.7129 12.467 11.1429C12.467 11.1429 14.5413 14.5543 14.567 14.5714H14.5627ZM11.5799 8.05286C10.8508 8.48795 10.1361 8.94677 9.437 9.42857C9.45843 9.44572 11.5327 12.8571 11.5327 12.8571C10.5984 12.2871 9.62129 11.6786 8.81986 11.1771C8.24557 10.8171 7.76129 10.5129 7.43986 10.32L7.29843 10.2429C7.07557 10.1186 6.827 9.98572 6.86129 9.71572C6.877 9.45568 6.95487 9.2032 7.08835 8.97948C7.22184 8.75576 7.40705 8.56733 7.62843 8.43L9.54843 7.25143L11.1599 6.26572C11.4024 6.09575 11.6909 6.0035 11.9871 6.0012C12.2833 5.99891 12.5732 6.08667 12.8184 6.25286L15.1541 7.68857L16.3541 8.42143C16.5837 8.55092 16.7756 8.73798 16.9108 8.96418C17.0461 9.19039 17.1201 9.44793 17.1256 9.71143C17.147 10.32 17.1427 10.9286 17.1384 11.5329V11.9829C17.1384 12.1929 17.0313 12.2486 16.8556 12.1414C16.6327 12.0086 16.4099 11.85 16.187 11.6957C15.977 11.55 15.7713 11.4043 15.5656 11.28C15.467 11.22 15.4284 11.13 15.4284 11.0229V10.8771C15.437 10.38 15.4456 9.87429 14.957 9.57429L13.607 8.76C13.2556 8.55429 12.9127 8.34857 12.4499 8.06572C12.3041 7.97572 12.1499 7.92857 11.9999 7.92857C11.8584 7.92857 11.717 7.97143 11.5799 8.05286Z" fill="#00FFB2"/>
</g>
<defs>
<clipPath id="clip0_31_18451">
<rect width="24" height="24" fill="white"/>
</clipPath>
</defs>
</svg>

<svg xmlns="http://www.w3.org/2000/svg" width="24" height="24" fill="none" viewBox="0 0 24 24"><g clip-path="url(#a)"><path fill="#343E47" d="M0 0h24v24H0z"/><path fill="#00FFB2" fill-rule="evenodd" d="M18.428 8.991a1.93 1.93 0 0 0-.985-1.624l-1.475-.921-2.935-1.843a1.8 1.8 0 0 0-2.07.021Q9.77 5.377 8.57 6.116l-.463.287c-.518.326-1.041.647-1.555.977-.51.326-.977.964-.982 1.586v5.948a2.04 2.04 0 0 0 .995 1.715l2.28 1.431 2.112 1.32a1.84 1.84 0 0 0 2.152-.026c.758-.493 1.526-.968 2.293-1.44.698-.437 1.401-.87 2.095-1.315a2.02 2.02 0 0 0 .93-1.646zm-3.865 5.58q-1.05.723-2.143 1.376a.8.8 0 0 1-.42.124q-.225-.001-.45-.137a68 68 0 0 0-1.157-.694l-1.35-.814c-.489-.3-.48-.806-.472-1.303v-.146a.28.28 0 0 0-.137-.257c-.206-.124-.411-.27-.621-.416-.223-.154-.446-.313-.669-.445-.176-.108-.283-.052-.283.158v.446c-.004.608-.008 1.217.013 1.826.017.548.287.985.772 1.285l1.2.737 2.335 1.436c.557.343 1.106.33 1.659-.013l1.611-.985c.643-.395 1.286-.785 1.92-1.183a1.63 1.63 0 0 0 .772-1.282c.025-.27-.219-.403-.442-.527l-.141-.077c-.322-.193-.806-.497-1.38-.857-.802-.502-1.779-1.11-2.713-1.68 0 0 2.074 3.411 2.1 3.428zM11.58 8.053q-1.095.653-2.143 1.376c.021.017 2.096 3.428 2.096 3.428-.935-.57-1.912-1.178-2.713-1.68-.574-.36-1.059-.664-1.38-.857l-.142-.077c-.222-.124-.471-.257-.437-.527a1.63 1.63 0 0 1 .767-1.286l1.92-1.179 1.612-.985a1.46 1.46 0 0 1 1.658-.013l2.336 1.436 1.2.732a1.52 1.52 0 0 1 .772 1.29c.021.609.017 1.218.012 1.822v.45c0 .21-.107.266-.282.158-.223-.132-.446-.291-.669-.445-.21-.146-.416-.292-.621-.416a.28.28 0 0 1-.138-.257v-.146c.009-.497.018-1.003-.471-1.303l-1.35-.814a68 68 0 0 1-1.157-.694.86.86 0 0 0-.45-.137.8.8 0 0 0-.42.124" clip-rule="evenodd"/></g><defs><clipPath id="a"><path fill="#fff" d="M0 0h24v24H0z"/></clipPath></defs></svg>
